src/assets/filled/Unlimited.svg

<svg width="24" height="24" viewBox="0 0 24 24"  xmlns="http://www.w3.org/2000/svg">
<path d="M17.45 17.2999C15.77 17.2999 14.22 16.5099 13.21 15.1199C12.97 14.7899 13.04 14.3199 13.37 14.0699C13.7 13.8199 14.17 13.8999 14.42 14.2299C15.15 15.2199 16.25 15.7899 17.45 15.7899C19.54 15.7899 21.25 14.0899 21.25 11.9899C21.25 9.88992 19.55 8.18992 17.45 8.18992C16.03 8.18992 14.69 8.94992 13.96 10.1599L11.31 14.5699C10.31 16.2399 8.47999 17.2699 6.53999 17.2699C3.61999 17.2699 1.23999 14.8899 1.23999 11.9699C1.23999 9.04992 3.61999 6.66992 6.53999 6.66992C8.21999 6.66992 9.76999 7.45992 10.78 8.84992C11.02 9.17992 10.95 9.64992 10.62 9.89992C10.28 10.1499 9.81999 10.0699 9.56999 9.73992C8.84999 8.76992 7.74999 8.19992 6.54999 8.19992C4.45999 8.19992 2.74999 9.89992 2.74999 11.9999C2.74999 14.0999 4.44999 15.7999 6.54999 15.7999C7.96999 15.7999 9.30999 15.0399 10.04 13.8299L12.69 9.41992C13.69 7.74992 15.52 6.71992 17.46 6.71992C20.38 6.71992 22.76 9.09992 22.76 12.0199C22.76 14.9399 20.37 17.2999 17.45 17.2999Z" />
<path d="M6.5 14C7.60457 14 8.5 13.1046 8.5 12C8.5 10.8954 7.60457 10 6.5 10C5.39543 10 4.5 10.8954 4.5 12C4.5 13.1046 5.39543 14 6.5 14Z" />
<path d="M17.5 14C18.6046 14 19.5 13.1046 19.5 12C19.5 10.8954 18.6046 10 17.5 10C16.3954 10 15.5 10.8954 15.5 12C15.5 13.1046 16.3954 14 17.5 14Z" />
</svg>

<?xml version="1.0" encoding="UTF-8"?>
<svg width="24" height="24" viewBox="0 0 24 24" xmlns="http://www.w3.org/2000/svg">
 <path d="m17.45 17.3c-1.68 0-3.23-0.79-4.24-2.18-0.24-0.33-0.17-0.8 0.16-1.05s0.8-0.17 1.05 0.16c0.73 0.99 1.83 1.56 3.03 1.56 2.09 0 3.8-1.7 3.8-3.8 0-2.1-1.7-3.8-3.8-3.8-1.42 0-2.76 0.76-3.49 1.97l-2.65 4.41c-1 1.67-2.83 2.7-4.77 2.7-2.92 0-5.3-2.38-5.3-5.3 0-2.92 2.38-5.3 5.3-5.3 1.68 0 3.23 0.79 4.24 2.18 0.24 0.33 0.17 0.8-0.16 1.05-0.34 0.24998-0.80001 0.16998-1.05-0.16-0.72-0.97-1.82-1.54-3.02-1.54-2.09 0-3.8 1.7-3.8 3.8 0 2.1 1.7 3.8 3.8 3.8 1.42 0 2.76-0.76 3.49-1.97l2.65-4.41c1-1.67 2.83-2.7 4.77-2.7 2.92 0 5.3 2.38 5.3 5.3 0 2.92-2.39 5.28-5.31 5.28z"/>
 <path d="m6.5 14c1.1046 0 2-0.8954 2-2s-0.89543-2-2-2-2 0.8954-2 2 0.89543 2 2 2z"/>
 <path d="m17.5 14c1.1046 0 2-0.8954 2-2s-0.8954-2-2-2-2 0.8954-2 2 0.8954 2 2 2z"/>
</svg>
